ibt/assets/img/icons/search.svg

<svg width="30" height="30" viewBox="0 0 30 30" fill="none" xmlns="http://www.w3.org/2000/svg">
<path fill-rule="evenodd" clip-rule="evenodd" d="M12.1875 1.875C6.49206 1.875 1.875 6.49206 1.875 12.1875C1.875 17.8829 6.49206 22.5 12.1875 22.5C17.8829 22.5 22.5 17.8829 22.5 12.1875C22.5 6.49206 17.8829 1.875 12.1875 1.875ZM0 12.1875C0 5.45653 5.45653 0 12.1875 0C18.9185 0 24.375 5.45653 24.375 12.1875C24.375 18.9185 18.9185 24.375 12.1875 24.375C5.45653 24.375 0 18.9185 0 12.1875Z" fill="white"/>
<path fill-rule="evenodd" clip-rule="evenodd" d="M22.7746 22.7746C23.1407 22.4085 23.7343 22.4085 24.1004 22.7746L29.7254 28.3996C30.0915 28.7657 30.0915 29.3593 29.7254 29.7254C29.3593 30.0915 28.7657 30.0915 28.3996 29.7254L22.7746 24.1004C22.4085 23.7343 22.4085 23.1407 22.7746 22.7746Z" fill="white"/>
</svg>

<svg width="30" height="30" fill="none" xmlns="http://www.w3.org/2000/svg"><path fill-rule="evenodd" clip-rule="evenodd" d="M12.188 1.875c-5.696 0-10.313 4.617-10.313 10.313 0 5.695 4.617 10.312 10.313 10.312 5.695 0 10.312-4.617 10.312-10.313 0-5.695-4.617-10.312-10.313-10.312zM0 12.188C0 5.457 5.457 0 12.188 0c6.73 0 12.187 5.457 12.187 12.188 0 6.73-5.456 12.187-12.188 12.187C5.457 24.375 0 18.919 0 12.187zm22.775 10.587a.937.937 0 011.325 0l5.625 5.625a.937.937 0 01-1.325 1.325L22.775 24.1a.937.937 0 010-1.325z" fill="#fff"/></svg>
